X: 351
T:Dictez moy bergere
N: Derived from Jos2810-Dictez_moy_bergere.krn
C: Josquin des Prez
%%abc-version 2.0
%%abcx-abcm2ps-target-version 5.9.1 (29 Sep 2008)
%%abc-creator hum2abc beta
%%abcx-conversion-date 2019/02/12 16:15:54
%%abc-edited-by Jesse Rodin
%%abc-edited-by Jesse Rodin; Victoria Chang 2011/07/27
%%abcx-initial-encoding-date 2011/07/27/
%%humdrum-veritas 2266744584
%%humdrum-veritas-data 257305081
%%linebreak <none>
%%barnumbers 0
L: 1/4
M: 2/1
Q: 1/2=120
%%staves [1 2 3 4]
V: 1 clef=treble
V: 2 clef=treble-8
V: 3 clef=treble-8
V: 4 clef=bass
K: C
[V:1] z8 | 
[V:2] d8 | 
[V:3] z8 | 
[V:4] G,8 | 
[V:1] G8 | 
[V:2] e4e4 | 
[V:3] c8 | 
[V:4] C,4C,4 | 
[V:1] A4A4 | 
[V:2] f6e2 | 
[V:3] F4F4 | 
[V:4] F,4D,4 | 
[V:1] _B6A2 | 
[V:2] d4g4- | 
[V:3] _B4G4 | 
[V:4] G,8 | 
[V:1] G4c4- | 
[V:2] g2f2e4- | 
[V:3] c8 | 
[V:4] C,4C,4 | 
[V:1] c2_B2A4- | 
[V:2] e2d2d4- | 
[V:3] F4F4 | 
[V:4] D,4D,4 | 
[V:1] A2G2G4- | 
[V:2] d4^c4 | 
[V:3] G4G4 | 
[V:4] E,8 | 
[V:1] G4^F4 | 
[V:2] d8 | 
[V:3] A8 | 
[V:4] D,8 | 
[V:1] G8 | 
[V:2] z4d4 | 
[V:3] G8 | 
[V:4] z8 | 
[V:1] z4G4 | 
[V:2] e4g4 | 
[V:3] z8 | 
[V:4] z4C,4 | 
[V:1] A4c4 | 
[V:2] f4a4 | 
[V:3] z4F4 | 
[V:4] F,4F,4 | 
[V:1] _B4d4 | 
[V:2] g4g4- | 
[V:3] _B4_B4 | 
[V:4] G,4G,4 | 
[V:1] c4c4- | 
[V:2] g2^fe^f4 | 
[V:3] c4c4 | 
[V:4] A,8 | 
[V:1] c2=BA=B4 | 
[V:2] g8 | 
[V:3] d8 | 
[V:4] G,8 | 
[V:1] c8 | 
[V:2] z8 | 
[V:3] c8 | 
[V:4] z8 | 
[V:1] z8 | 
[V:2] z4g4- | 
[V:3] z8 | 
[V:4] G,6F,2 | 
[V:1] z4c4- | 
[V:2] g2f2e2d2 | 
[V:3] c6_B2 | 
[V:4] E,2D,2C,4 | 
[V:1] c2_B2A2G2 | 
[V:2] c2def4- | 
[V:3] A2G2F4 | 
[V:4] z4F,4 | 
[V:1] F2GA_B4- | 
[V:2] f2e2d4- | 
[V:3] z4_B4 | 
[V:4] D,8 | 
[V:1] B2A2G4- | 
[V:2] d2^cB^c4 | 
[V:3] G8 | 
[V:4] E,8 | 
[V:1] G2^FEF4 | 
[V:2] d8 | 
[V:3] A8 | 
[V:4] D,8 | 
[V:1] G8 | 
[V:2] z4d4 | 
[V:3] G8 | 
[V:4] z8 | 
[V:1] z4G4 | 
[V:2] e4e4 | 
[V:3] z8 | 
[V:4] G,8 | 
[V:1] A4A4 | 
[V:2] f6e2 | 
[V:3] c8 | 
[V:4] F,4F,4 | 
[V:1] _B6A2 | 
[V:2] d8 | 
[V:3] _B4_B4 | 
[V:4] G,8 | 
[V:1] G8 | 
[V:2] z4g4- | 
[V:3] c8 | 
[V:4] z4C,4 | 
[V:1] z4c4- | 
[V:2] g2f2f4- | 
[V:3] z4F4 | 
[V:4] F,4F,4 | 
[V:1] c2_B2B4- | 
[V:2] f4e4 | 
[V:3] _B4_B4 | 
[V:4] G,8 | 
[V:1] B4A4 | 
[V:2] f8 | 
[V:3] c8 | 
[V:4] F,8 | 
[V:1] _B8 | 
[V:2] z8 | 
[V:3] _B8 | 
[V:4] z8 | 
[V:1] z8 | 
[V:2] d8 | 
[V:3] z8 | 
[V:4] G,8 | 
[V:1] G8 | 
[V:2] e4e4 | 
[V:3] c8 | 
[V:4] C,4C,4 | 
[V:1] A4A4 | 
[V:2] f6e2 | 
[V:3] F4F4 | 
[V:4] F,4D,4 | 
[V:1] _B6A2 | 
[V:2] d4g4- | 
[V:3] _B4G4 | 
[V:4] G,8 | 
[V:1] G4c4- | 
[V:2] g2f2e4- | 
[V:3] c8 | 
[V:4] C,4C,4 | 
[V:1] c2_B2A4- | 
[V:2] e2d2d4- | 
[V:3] F4F4 | 
[V:4] D,4D,4 | 
[V:1] A2G2G4- | 
[V:2] d4^c4 | 
[V:3] G4G4 | 
[V:4] E,8 | 
[V:1] G4^F4 | 
[V:2] d8 | 
[V:3] A8 | 
[V:4] D,8 | 
[V:1] G8 | 
[V:2] z4d4 | 
[V:3] G8 | 
[V:4] z8 | 
[V:1] z4G4 | 
[V:2] e4g4 | 
[V:3] z8 | 
[V:4] z4C,4 | 
[V:1] A4c4 | 
[V:2] f4a4 | 
[V:3] z4F4 | 
[V:4] F,4F,4 | 
[V:1] _B4d4 | 
[V:2] g4g4- | 
[V:3] _B4_B4 | 
[V:4] G,4G,4 | 
[V:1] c4c4- | 
[V:2] g2^fe^f4 | 
[V:3] c4c4 | 
[V:4] A,8 | 
[V:1] c2=BA=B4 | 
[V:2] g8 | 
[V:3] d8 | 
[V:4] G,8 | 
[V:1] c8 | 
[V:2] z8 | 
[V:3] c8 | 
[V:4] z8 | 
[V:1] z8 | 
[V:2] z4g4- | 
[V:3] z8 | 
[V:4] G,6F,2 | 
[V:1] z4c4- | 
[V:2] g2f2e2d2 | 
[V:3] c6_B2 | 
[V:4] E,2D,2C,4 | 
[V:1] c2_B2A2G2 | 
[V:2] c4z4 | 
[V:3] A2G2F4 | 
[V:4] z4D,4- | 
[V:1] F4z4 | 
[V:2] d6c2 | 
[V:3] z4G4- | 
[V:4] D,2C,2B,,2A,,2 | 
[V:1] G6F2 | 
[V:2] B2A2G4 | 
[V:3] G2F2E2D2 | 
[V:4] G,,4G,,4 | 
[V:1] E2D2C4 | 
[V:2] z4g4- | 
[V:3] C4C4 | 
[V:4] G,6F,2 | 
[V:1] z4c4- | 
[V:2] g2f2e2d2 | 
[V:3] c6_B2 | 
[V:4] E,2D,2C,4 | 
[V:1] c2_B2A2G2 | 
[V:2] c2def4- | 
[V:3] A2G2F4 | 
[V:4] z4F,4 | 
[V:1] F2GA_B4- | 
[V:2] f2e2d4- | 
[V:3] z4_B4 | 
[V:4] D,8 | 
[V:1] B2A2G4- | 
[V:2] d2^cB^c4 | 
[V:3] G8 | 
[V:4] E,8 | 
[V:1] G2^FEF4 | 
[V:2] d8 | 
[V:3] A8 | 
[V:4] D,8 | 
[V:1] G8 |]  
[V:2] d8 |]  
[V:3] G8 |]  
[V:4] G,,8 |]  



